X: 39
M:6/8
L:1/8
K:Gm
|: d2 e d2 =e|f>gf F3 B|A2 B c>d=B|c3 c2 f|d>cd c2 A|B b2 a2 d|d2 g ga^f|g3 g3:|

